src/main/resources/icons/SpringApiIcons/icons/springConfig.svg

<svg xmlns="http://www.w3.org/2000/svg" width="16" height="16" viewBox="0 0 16 16">
  <g fill="none" fill-rule="evenodd">
    <path fill="#F26522" fill-opacity=".7" d="M8.6621,15.9687 C7.5361,15.3587 7.3001,14.5307 7.3001,13.9427 C7.3001,12.2697 8.04707006,10.6938432 11.4201,10.3007 C14,10 13.7841,9.3647 14.4061,8.9997 L1.0001,8.9997 L1.0001,15.9997 L8.7201,15.9997 L8.6621,15.9687 Z"/>
    <polygon fill="#9AA7B0" fill-opacity=".8" points="7 1 3 5 7 5"/>
    <polygon fill="#9AA7B0" fill-opacity=".8" points="8 1 8 5 8 6 7 6 3 6 3 8 13 8 13 1"/>
    <polygon fill="#231F20" fill-opacity=".7" points="3 12.991 3 12.009 6 10 6 11.045 3.753 12.491 6 13.946 6 15"/>
    <path fill="#62B543" fill-opacity=".7" d="M15.3250988,14.8772067 C14.1360745,16.4601609 11.5978525,15.9290035 9.96981283,16.0026293 C9.96981283,16.0026293 9.68161765,16.0189906 9.39108418,16.0669057 C9.39108418,16.0669057 9.50098417,16.0201592 9.64128202,15.9716597 C10.784125,15.5766516 11.3248563,15.4971825 12.0199152,15.1401559 C13.3246853,14.4716806 14.6241941,13.0161107 14.8878372,11.5038607 C14.3909489,12.9588462 12.8798241,14.2104844 11.5043206,14.7176842 C10.5619867,15.0647771 8.85853691,15.4036894 8.85853691,15.4042738 L8.78955713,15.3674609 C7.63093069,14.8041653 7.5987791,12.2967986 9.70207776,11.4886681 C10.6245361,11.1339788 11.5066589,11.3291456 12.5033582,11.0913226 C13.5666991,10.8388914 14.7978127,10.0395258 15.2982084,9 C15.8599844,10.6641762 16.5339987,13.2673733 15.3250988,14.8772067 Z"/>
  </g>
</svg>

<svg xmlns="http://www.w3.org/2000/svg" width="16" height="16" viewBox="0 0 16 16"><rect id="frame" width="16" height="16" fill="none"/><g fill="none" fill-rule="evenodd"><path fill="#F26522" fill-opacity=".7" d="M8.662 15.969C7.536 15.359 7.3 14.53 7.3 13.943c0-1.673.747-3.25 4.12-3.642C14 10 13.784 9.365 14.406 9H1v7h7.72l-.058-.031z"/><path fill="#9AA7B0" fill-opacity=".8" d="M7 1L3 5h4z"/><path fill="#9AA7B0" fill-opacity=".8" d="M8 1v5H3v2h10V1z"/><path fill="#231F20" fill-opacity=".7" d="M3 12.991v-.982L6 10v1.045l-2.247 1.446L6 13.946V15z"/><path fill="#62B543" fill-opacity=".7" d="M15.325 14.877c-1.189 1.583-3.727 1.052-5.355 1.126 0 0-.288.016-.579.064 0 0 .11-.047.25-.095 1.143-.395 1.684-.475 2.379-.832 1.305-.668 2.604-2.124 2.868-3.636-.497 1.455-2.008 2.706-3.384 3.214-.942.347-2.645.686-2.645.686l-.07-.037c-1.158-.563-1.19-3.07.913-3.878.923-.355 1.805-.16 2.801-.398 1.064-.252 2.295-1.051 2.795-2.091.562 1.664 1.236 4.267.027 5.877z"/></g></svg>
